X:451
T:Come Under My Plaidie
T:Contentment Is Wealth
R:jig
H:Scottish
Z:hn-jig-451
M:6/8
L:1/8
K:Em
g | dBB BAG | dBB B2g | dBB BAB | GEE E2g |
dBB BAG | ded BAG | ABc BAB | GEE E2 :|
|: d | g3 aga | bge dBd | g3 aga | bge ega |
bgb afa | gef gfe | dBB BAB | GEE E2 :|

